X:196
T:Sweet Maid of Glendaruel
O:scotland
R:Reel
M:2/4
L:1/8
K:GMix
d|\
G>A Bc|d>B Gc|BG dB|BA Ad|\
G>A Bc|d>B GA/B/|c>A FA|AGG::
g|\
ed g>e|d>B Gg|ed gB|BA Ag|\
ed ge|d>B GA/B/|c>A FA|AGG:|
